designathon/sketch-logo.svg

<svg clip-rule="evenodd" fill-rule="evenodd" stroke-linejoin="round" stroke-miterlimit="2" viewBox="0 0 461 182" xmlns="http://www.w3.org/2000/svg"><g transform="translate(0 48)"><path d="m122.365 53.564-.066-.88h-7.299l.04.99c.449 11.024 7.832 18.326 20.963 18.326 12.524 0 21.039-6.55 21.039-16.464 0-5.361-1.847-9.154-5.368-11.745-2.708-1.993-5.946-3.116-11.316-4.288-.359-.079-.732-.159-1.181-.254-.266-.056-1.22-.257-1.17-.247-9.751-2.058-12.844-3.845-12.844-9.169 0-5.506 4.472-9.012 11.973-9.012 7.299 0 11.911 4.487 12.126 11.55l.028.922h7.246l-.023-.973c-.252-11.009-7.59-18.419-19.452-18.419-11.626 0-19.302 7.042-19.302 16.16 0 5.345 1.846 9.068 5.372 11.555 2.686 1.895 5.798 2.9 11.288 4.015.257.053.525.107.844.17.198.04.421.084.84.168 5.194 1.034 7.486 1.673 9.577 2.896 2.595 1.52 3.883 3.69 3.883 7.051 0 5.837-4.874 9.164-13.409 9.164-8.17 0-13.24-4.125-13.789-11.516zm49.975-3.072v-38.492h-7.252v58.935h7.252v-11.119l7.634-7.485 13.633 18.226.284.378h9.021l-1.15-1.525-16.65-22.076 15.355-15.383 1.621-1.624h-9.857l-.277.281zm36.846 2.649h31.805l.055-.892c.01-.156.025-.415.039-.728.011-.247.021-.488.028-.715.007-.247.011-.471.011-.669 0-11.931-7.851-20.723-19.453-20.723-11.58 0-19.83 9.358-19.83 21.179 0 12.164 7.876 21.255 19.906 21.255 9.096 0 16.123-5.433 18.655-13.674l.378-1.231h-7.538l-.223.633c-1.59 4.51-5.894 7.504-11.197 7.504-6.932 0-11.765-4.793-12.636-11.939zm.22-6.312c1.224-6.399 5.9-10.646 12.265-10.646 6.561 0 11.089 4.107 12.079 10.646zm47.62-10.038h8.839v-6.464h-8.839v-11.027h-7.252v11.027h-7.328v6.464h7.328v22.776c0 7.471 3.85 11.52 10.916 11.52 1.233 0 2.297-.074 3.189-.199.552-.077.933-.157 1.143-.215l.692-.194v-6.769l-1.145.251c-.046.01-.139.029-.271.054-.224.042-.474.085-.742.124-.687.102-1.368.167-1.995.179-.065.001-.128.001-.191.001-3.096 0-4.344-1.463-4.344-5.133zm30.445 35.057c10.038 0 17.126-6.394 18.906-15.443l.223-1.135h-7.315l-.187.706c-1.524 5.775-5.663 9.104-11.627 9.104-7.444 0-12.579-5.911-12.579-14.411 0-8.566 5.127-14.486 12.579-14.486 5.964 0 10.103 3.329 11.627 9.103l.187.706h7.315l-.223-1.135c-1.78-9.048-8.868-15.443-18.906-15.443-11.661 0-19.906 9.425-19.906 21.255 0 11.766 8.256 21.179 19.906 21.179zm32.484-37.968v-21.88h-7.252v58.935h7.252v-23.84c0-6.974 4.217-11.065 10.614-11.065 6.11 0 9.179 3.561 9.179 10.305v24.6h7.252v-25.665c0-9.526-5.86-15.856-15.524-15.856-4.973 0-8.969 1.834-11.521 4.466z" fill="#fff" fill-rule="nonzero"/><path d="m20.903 2.831 27-2.831 27 2.831 20.903 27.835-47.903 55.334-47.903-55.334z" fill="#fdb300"/><g transform="translate(0 30.6663)"><path d="m19.403 0 28.5 55.334-47.903-55.334z" fill="#ea6c00"/><path d="m67.306 0 28.5 55.334-47.903-55.334z" fill="#ea6c00" transform="matrix(-1 0 0 1 143.71 0)"/><path d="m19.403 0h57l-28.5 55.334z" fill="#fdad00"/></g><path d="m47.903 0-27 2.831-1.5 27.835z" fill="#fdd231"/><path d="m76.403 0-27 2.831-1.5 27.835z" fill="#fdd231" transform="matrix(-1 0 0 1 124.306 0)"/><path d="m74.903 30.666 20.903-27.835-1.5 27.835z" fill="#fdad00" transform="matrix(-1 0 0 1 170.71 0)"/><path d="m0 30.666 20.903-27.835-1.5 27.835z" fill="#fdad00"/><path d="m47.903 0-28.5 30.666h57z" fill="#feeeb7"/></g></svg>

<?xml version="1.0" encoding="UTF-8" standalone="no"?>
<!DOCTYPE svg PUBLIC "-//W3C//DTD SVG 1.1//EN" "http://www.w3.org/Graphics/SVG/1.1/DTD/svg11.dtd">
<svg width="100%" height="100%" viewBox="0 0 461 182" version="1.1" xmlns="http://www.w3.org/2000/svg" xmlns:xlink="http://www.w3.org/1999/xlink" xml:space="preserve" xmlns:serif="http://www.serif.com/" style="fill-rule:evenodd;clip-rule:evenodd;stroke-linejoin:round;stroke-miterlimit:2;">
    <g transform="matrix(1,0,0,1,0,48)">
        <g id="sketch-logo-light">
            <g id="Full-Logo">
                <path id="Wordmark" d="M122.365,53.564L122.299,52.684L115,52.684L115.04,53.674C115.489,64.698 122.872,72 136.003,72C148.527,72 157.042,65.45 157.042,55.536C157.042,50.175 155.195,46.382 151.674,43.791C148.966,41.798 145.728,40.675 140.358,39.503C139.999,39.424 139.626,39.344 139.177,39.249C138.911,39.193 137.957,38.992 138.007,39.002C128.256,36.944 125.163,35.157 125.163,29.833C125.163,24.327 129.635,20.821 137.136,20.821C144.435,20.821 149.047,25.308 149.262,32.371L149.29,33.293L156.536,33.293L156.513,32.32C156.261,21.311 148.923,13.901 137.061,13.901C125.435,13.901 117.759,20.943 117.759,30.061C117.759,35.406 119.605,39.129 123.131,41.616C125.817,43.511 128.929,44.516 134.419,45.631C134.676,45.684 134.944,45.738 135.263,45.801C135.461,45.841 135.684,45.885 136.103,45.969C141.297,47.003 143.589,47.642 145.68,48.865C148.275,50.385 149.563,52.555 149.563,55.916C149.563,61.753 144.689,65.08 136.154,65.08C127.984,65.08 122.914,60.955 122.365,53.564ZM172.34,50.492L172.34,12L165.088,12L165.088,70.935L172.34,70.935L172.34,59.816L179.974,52.331L193.607,70.557L193.891,70.935L202.912,70.935L201.762,69.41L185.112,47.334L200.467,31.951L202.088,30.327L192.231,30.327L191.954,30.608L172.34,50.492ZM209.186,53.141L240.991,53.141L241.046,52.249C241.056,52.093 241.071,51.834 241.085,51.521C241.096,51.274 241.106,51.033 241.113,50.806C241.12,50.559 241.124,50.335 241.124,50.137C241.124,38.206 233.273,29.414 221.671,29.414C210.091,29.414 201.841,38.772 201.841,50.593C201.841,62.757 209.717,71.848 221.747,71.848C230.843,71.848 237.87,66.415 240.402,58.174L240.78,56.943L233.242,56.943L233.019,57.576C231.429,62.086 227.125,65.08 221.822,65.08C214.89,65.08 210.057,60.287 209.186,53.141ZM209.406,46.829C210.63,40.43 215.306,36.183 221.671,36.183C228.232,36.183 232.76,40.29 233.75,46.829L209.406,46.829ZM257.026,36.791L265.865,36.791L265.865,30.327L257.026,30.327L257.026,19.3L249.774,19.3L249.774,30.327L242.446,30.327L242.446,36.791L249.774,36.791L249.774,59.567C249.774,67.038 253.624,71.087 260.69,71.087C261.923,71.087 262.987,71.013 263.879,70.888C264.431,70.811 264.812,70.731 265.022,70.673L265.714,70.479L265.714,63.71L264.569,63.961C264.523,63.971 264.43,63.99 264.298,64.015C264.074,64.057 263.824,64.1 263.556,64.139C262.869,64.241 262.188,64.306 261.561,64.318C261.496,64.319 261.433,64.319 261.37,64.319C258.274,64.319 257.026,62.856 257.026,59.186L257.026,36.791ZM287.471,71.848C297.509,71.848 304.597,65.454 306.377,56.405L306.6,55.27L299.285,55.27L299.098,55.976C297.574,61.751 293.435,65.08 287.471,65.08C280.027,65.08 274.892,59.169 274.892,50.669C274.892,42.103 280.019,36.183 287.471,36.183C293.435,36.183 297.574,39.512 299.098,45.286L299.285,45.992L306.6,45.992L306.377,44.857C304.597,35.809 297.509,29.414 287.471,29.414C275.81,29.414 267.565,38.839 267.565,50.669C267.565,62.435 275.821,71.848 287.471,71.848ZM319.955,33.88L319.955,12L312.703,12L312.703,70.935L319.955,70.935L319.955,47.095C319.955,40.121 324.172,36.03 330.569,36.03C336.679,36.03 339.748,39.591 339.748,46.335L339.748,70.935L347,70.935L347,45.27C347,35.744 341.14,29.414 331.476,29.414C326.503,29.414 322.507,31.248 319.955,33.88Z" style="fill:white;fill-rule:nonzero;"/>
                <g id="Logo">
                    <g id="Icon">
                        <path id="Mask" d="M20.903,2.831L47.903,0L74.903,2.831L95.806,30.666L47.903,86L0,30.666L20.903,2.831Z" style="fill:rgb(253,179,0);"/>
                        <g transform="matrix(1,0,0,1,0,30.6663)">
                            <g id="Base">
                                <g>
                                    <path id="Path-54-Copy" d="M19.403,0L47.903,55.334L0,0L19.403,0Z" style="fill:rgb(234,108,0);"/>
                                    <g id="Path-54-Copy-3" transform="matrix(-1,0,0,1,143.71,0)">
                                        <path d="M67.306,0L95.806,55.334L47.903,0L67.306,0Z" style="fill:rgb(234,108,0);"/>
                                    </g>
                                    <path id="Path-65" d="M19.403,0L76.403,0L47.903,55.334L19.403,0Z" style="fill:rgb(253,173,0);"/>
                                </g>
                            </g>
                        </g>
                        <g id="Crown">
                            <path id="Path-52" d="M47.903,0L20.903,2.831L19.403,30.666L47.903,0Z" style="fill:rgb(253,210,49);"/>
                            <g id="Path-52-Copy-2" transform="matrix(-1,0,0,1,124.306,0)">
                                <path d="M76.403,0L49.403,2.831L47.903,30.666L76.403,0Z" style="fill:rgb(253,210,49);"/>
                            </g>
                            <g id="Path-52-Copy-3" transform="matrix(-1,0,0,1,170.71,0)">
                                <path d="M74.903,30.666L95.806,2.831L94.306,30.666L74.903,30.666Z" style="fill:rgb(253,173,0);"/>
                            </g>
                            <path id="Path-52-Copy-9" d="M0,30.666L20.903,2.831L19.403,30.666L0,30.666Z" style="fill:rgb(253,173,0);"/>
                            <path id="Path-66" d="M47.903,0L19.403,30.666L76.403,30.666L47.903,0Z" style="fill:rgb(254,238,183);"/>
                        </g>
                    </g>
                </g>
            </g>
        </g>
    </g>
</svg>
